assets/svg/mobi_logo_white.svg

<svg fill="none" height="64" viewBox="0 0 176 64" width="176" xmlns="http://www.w3.org/2000/svg" xmlns:xlink="http://www.w3.org/1999/xlink"><clipPath id="a"><path d="m0 0h175.322v64h-175.322z"/></clipPath><g clip-path="url(#a)" fill="#fff"><path d="m26.9599 34.8535h-4.1747v28.9664h4.1747z"/><path d="m15.2052 16.1144c-2.9963 1.3016-5.62881 3.0867-7.89863 5.3565-2.26869 2.2699-4.05494 4.9023-5.35536 7.8975-1.302691 2.9963-1.95121 6.2186-1.95121 9.6679v24.7816h4.1747v-24.7816c0-2.8438.54457-5.5214 1.63372-8.033s2.57148-4.7058 4.44808-6.5824c1.8755-1.8744 4.0685-3.359 6.5824-4.4481 2.5093-1.0892 5.1881-1.6349 8.033-1.6349s5.5215.5446 8.0331 1.6349c2.5105 1.0891 4.6899 2.5737 6.536 4.4481 1.8461 1.8766 3.3138 4.0708 4.4029 6.5824 1.0892 2.5116 1.6338 5.1892 1.6338 8.033v24.7816h4.1769v-24.7816c0-3.4493-.6519-6.6716-1.9523-9.6679-1.3027-2.9963-3.072-5.6276-5.3102-7.8975-2.2404-2.2698-4.8729-4.0538-7.8975-5.3565-3.0268-1.3004-6.2343-1.9523-9.6215-1.9523s-6.6728.6519-9.6679 1.9523z"/><path d="m131.554 58.0221c-2.517-1.0869-4.716-2.5658-6.593-4.4368-1.88-1.8721-3.366-4.0595-4.457-6.5666-1.092-2.5036-1.638-5.1757-1.638-8.0149 0-2.8393.545-5.509 1.638-8.015 1.091-2.5048 2.577-4.6786 4.457-6.5202 1.877-1.8405 4.076-3.3059 6.593-4.3928 2.515-1.0869 5.198-1.6303 8.048-1.6303 2.851 0 5.533.5434 8.048 1.6303 2.516 1.0869 4.699 2.5512 6.548 4.3928 1.85 1.8427 3.32 4.0154 4.411 6.5202 1.091 2.506 1.637 5.1791 1.637 8.015 0 2.8358-.546 5.5101-1.637 8.0149-1.091 2.5071-2.561 4.6956-4.411 6.5666-1.849 1.8721-4.032 3.3499-6.548 4.4368s-5.2 1.6303-8.048 1.6303-5.534-.5434-8.048-1.6303zm-16.78-58.0221v38.9721c0 3.6132.744 7.2015 2.291 10.4667.083.1751.169.3491.256.5231 1.394 2.7771 3.196 5.1938 5.411 7.2456 2.213 2.0529 4.758 3.6674 7.639 4.8447 2.879 1.1773 5.958 1.767 9.232 1.767 3.456 0 6.684-.6485 9.685-1.9478 3.001-1.297 5.623-3.0788 7.867-5.3429 2.242-2.2642 4.015-4.891 5.32-7.8794 1.303-2.9884 1.956-6.2039 1.956-9.6453 0-3.4415-.653-6.6569-1.956-9.6453-1.305-2.9873-3.078-5.5983-5.32-7.8331-2.244-2.2325-4.866-3.9984-7.867-5.2977-3.001-1.2982-6.229-1.9467-9.685-1.9467-4.365 0-8.353.9953-11.959 2.9884-3.274 1.8077-5.987 4.1882-8.137 7.1393-.202.2779-.639.139-.639-.2045v-24.2042h-4.093z"/><path d="m175.321 14.1631h-4.138v49.6557h4.138z"/><path d="m105.385 29.3852c-1.292-3.02-3.062-5.6627-5.315-7.928-2.2532-2.2653-4.8823-4.0459-7.8865-5.3452-3.0054-1.2993-6.2174-1.9489-9.6419-1.9489s-6.6389.6496-9.6431 1.9489-5.6322 3.0811-7.885 5.3452c-2.2529 2.2653-4.0256 4.908-5.3158 7.928-1.2937 3.0223-1.9377 6.2524-1.9377 9.6961 0 3.4438.644 6.675 1.9377 9.6951 1.2913 3.0222 3.064 5.6638 5.3158 7.9291 2.2528 2.2653 4.8808 4.047 7.885 5.3463s6.2174 1.9478 9.6431 1.9478c3.4256 0 6.6365-.6485 9.6419-1.9478 3.0042-1.2993 5.6333-3.081 7.8865-5.3463 2.253-2.2653 4.024-4.908 5.315-7.9291 1.292-3.0201 1.938-6.2513 1.938-9.6951 0-3.4437-.646-6.6738-1.938-9.6961zm-3.83 17.7608c-1.081 2.5365-2.553 4.743-4.4139 6.614-1.8619 1.8733-4.056 3.3533-6.5789 4.4402s-5.1972 1.6315-8.0206 1.6315c-2.8235 0-5.4966-.5446-8.0207-1.6315-2.5229-1.088-4.717-2.5669-6.5789-4.4402-1.8631-1.8721-3.3341-4.0775-4.4154-6.614-1.0823-2.5364-1.6224-5.2243-1.6224-8.0647 0-2.8403.5401-5.527 1.6224-8.0646 1.0813-2.5376 2.5534-4.7419 4.4154-6.6152 1.8619-1.8721 4.056-3.3521 6.5789-4.4402 2.5241-1.0868 5.1961-1.6303 8.0207-1.6303 2.8245 0 5.4977.5435 8.0206 1.6303 2.5229 1.0881 4.717 2.5681 6.5789 4.4402 1.862 1.8733 3.3339 4.0776 4.4139 6.6152 1.083 2.5364 1.623 5.2254 1.623 8.0646 0 2.8393-.54 5.5271-1.623 8.0647z"/></g></svg>

<svg width="176" height="64" viewBox="0 0 176 64" fill="none" xmlns="http://www.w3.org/2000/svg">
<g clip-path="url(#clip0_484_460)">
<path d="M26.9599 34.8535H22.7852V63.8199H26.9599V34.8535Z" fill="white"/>
<path d="M15.2052 16.1144C12.2089 17.416 9.57639 19.2011 7.30657 21.4709C5.03788 23.7408 3.25163 26.3732 1.95121 29.3684C0.648519 32.3647 0 35.587 0 39.0363V63.8179H4.1747V39.0363C4.1747 36.1925 4.71927 33.5149 5.80842 31.0033C6.89757 28.4917 8.3799 26.2975 10.2565 24.4209C12.132 22.5465 14.325 21.0619 16.8389 19.9728C19.3482 18.8836 22.027 18.3379 24.8719 18.3379C27.7168 18.3379 30.3934 18.8825 32.905 19.9728C35.4155 21.0619 37.5949 22.5465 39.441 24.4209C41.2871 26.2975 42.7548 28.4917 43.8439 31.0033C44.9331 33.5149 45.4777 36.1925 45.4777 39.0363V63.8179H49.6546V39.0363C49.6546 35.587 49.0027 32.3647 47.7023 29.3684C46.3996 26.3721 44.6303 23.7408 42.3921 21.4709C40.1517 19.2011 37.5192 17.4171 34.4946 16.1144C31.4678 14.814 28.2603 14.1621 24.8731 14.1621C21.4859 14.1621 18.2003 14.814 15.2052 16.1144Z" fill="white"/>
<path d="M131.554 58.0221C129.037 56.9352 126.838 55.4563 124.961 53.5853C123.081 51.7132 121.595 49.5258 120.504 47.0187C119.412 44.5151 118.866 41.843 118.866 39.0038C118.866 36.1645 119.411 33.4948 120.504 30.9888C121.595 28.484 123.081 26.3102 124.961 24.4686C126.838 22.6281 129.037 21.1627 131.554 20.0758C134.069 18.9889 136.752 18.4455 139.602 18.4455C142.453 18.4455 145.135 18.9889 147.65 20.0758C150.166 21.1627 152.349 22.627 154.198 24.4686C156.048 26.3113 157.518 28.484 158.609 30.9888C159.7 33.4948 160.246 36.1679 160.246 39.0038C160.246 41.8396 159.7 44.5139 158.609 47.0187C157.518 49.5258 156.048 51.7143 154.198 53.5853C152.349 55.4574 150.166 56.9352 147.65 58.0221C145.134 59.109 142.45 59.6524 139.602 59.6524C136.754 59.6524 134.068 59.109 131.554 58.0221ZM114.774 0V38.9721C114.774 42.5853 115.518 46.1736 117.065 49.4388C117.148 49.6139 117.234 49.7879 117.321 49.9619C118.715 52.739 120.517 55.1557 122.732 57.2075C124.945 59.2604 127.49 60.8749 130.371 62.0522C133.25 63.2295 136.329 63.8192 139.603 63.8192C143.059 63.8192 146.287 63.1707 149.288 61.8714C152.289 60.5744 154.911 58.7926 157.155 56.5285C159.397 54.2643 161.17 51.6375 162.475 48.6491C163.778 45.6607 164.431 42.4452 164.431 39.0038C164.431 35.5623 163.778 32.3469 162.475 29.3585C161.17 26.3712 159.397 23.7602 157.155 21.5254C154.911 19.2929 152.289 17.527 149.288 16.2277C146.287 14.9295 143.059 14.281 139.603 14.281C135.238 14.281 131.25 15.2763 127.644 17.2694C124.37 19.0771 121.657 21.4576 119.507 24.4087C119.305 24.6866 118.868 24.5477 118.868 24.2042V0H114.775H114.774Z" fill="white"/>
<path d="M175.321 14.1631H171.183V63.8188H175.321V14.1631Z" fill="white"/>
<path d="M105.385 29.3852C104.093 26.3652 102.323 23.7225 100.07 21.4572C97.8168 19.1919 95.1877 17.4113 92.1835 16.112C89.1781 14.8127 85.9661 14.1631 82.5416 14.1631C79.1171 14.1631 75.9027 14.8127 72.8985 16.112C69.8943 17.4113 67.2663 19.1931 65.0135 21.4572C62.7606 23.7225 60.9879 26.3652 59.6977 29.3852C58.404 32.4075 57.76 35.6376 57.76 39.0813C57.76 42.5251 58.404 45.7563 59.6977 48.7764C60.989 51.7986 62.7617 54.4402 65.0135 56.7055C67.2663 58.9708 69.8943 60.7525 72.8985 62.0518C75.9027 63.3511 79.1159 63.9996 82.5416 63.9996C85.9672 63.9996 89.1781 63.3511 92.1835 62.0518C95.1877 60.7525 97.8168 58.9708 100.07 56.7055C102.323 54.4402 104.094 51.7975 105.385 48.7764C106.677 45.7563 107.323 42.5251 107.323 39.0813C107.323 35.6376 106.677 32.4075 105.385 29.3852ZM101.555 47.146C100.474 49.6825 99.002 51.889 97.1411 53.76C95.2792 55.6333 93.0851 57.1133 90.5622 58.2002C88.0393 59.2871 85.365 59.8317 82.5416 59.8317C79.7181 59.8317 77.045 59.2871 74.5209 58.2002C71.998 57.1122 69.8039 55.6333 67.942 53.76C66.0789 51.8879 64.6079 49.6825 63.5266 47.146C62.4443 44.6096 61.9042 41.9217 61.9042 39.0813C61.9042 36.241 62.4443 33.5543 63.5266 31.0167C64.6079 28.4791 66.08 26.2748 67.942 24.4015C69.8039 22.5294 71.998 21.0494 74.5209 19.9613C77.045 18.8745 79.717 18.331 82.5416 18.331C85.3661 18.331 88.0393 18.8745 90.5622 19.9613C93.0851 21.0494 95.2792 22.5294 97.1411 24.4015C99.0031 26.2748 100.475 28.4791 101.555 31.0167C102.638 33.5531 103.178 36.2421 103.178 39.0813C103.178 41.9206 102.638 44.6084 101.555 47.146Z" fill="white"/>
</g>
<defs>
<clipPath id="clip0_484_460">
<rect width="175.322" height="64" fill="white"/>
</clipPath>
</defs>
</svg>
